X:137
T:Somewhere Over The Rainbow
C:by Harold Arlen
N:Arranged and TablEdited by David Ogershok
L:1/8
Q:1/4=170
M:4/4
K:C
|: [G4B,4] B2 d2 | [g8B8E8] | [^f4B4D4] d2 e2 | 
[^f4B4D4] [g4B4F4] | [c8G8C8] | [e8^c8G8_B,8] | [d4G4B,4] d2 e2 | [f8B8D8] | [E8C8] | 
[c8^D8] | [B4D4G,4] G2 A2 | [B4D4^G,4] [c2D2G,2] B2 | [A4G4^C4] ^F2 G2 | [A4^F4C4] [B4F4C4] | [G8B,8] :|
d2 |: [B2G2] d2 [B2^F2] d2 | [B2E2] d2 [B2D2] d2 | [c2G2] d2 [c2^F2] d2 | 
[c2E2] d2 [c2D2] d2 | [e8c8E8] | [d4^F4C4] [d4F4_B,4] | [B2G2] d2 [B2^F2] d2 | 
[B2E2] d2 [B2D2] d2 | [^c2A2] e2 [c2G2] e2 | [^c2^F2] e2 [c2E2] e2 | [^f8c8D8] | 
z2 ^f2 g2 ^g2 | [a3c3^F3]g ^f2 e2 | d2 c2 B2 A2 :|3 [G8B,8] |]

